X:1
T:Keep Me Ever Close to Thee
T:Keep Me Ever Close to Thee
T:William James Kirkpatrick
T:Frances Jane (Fanny) Crosby, 1880
T:Public Domain Courtesy of the Cyber Hymnal™
T:Public Domain Courtesy of the Cyber Hymnal™
C:William James Kirkpatrick
Z:Public Domain
Z:Courtesy of the Cyber Hymnal™
%%score 1 ( 2 3 )
L:1/8
Q:1/4=110
M:4/4
K:C
V:1 treble 
V:2 bass 
V:3 bass 
V:1
 [CE][DF] | [EG]2 [Ec]2 [FB]2 [FA]2 | [FA]2 [EG]4 [CE][EG] | [EG]2 [DF]2 [CE]2 [B,D]2 | %4
w: 1.~Source from|whence the stream of|mer- cy Like a|riv- er flows to|
w: 2.~There my|life, my hope and|com- fort, There a|ref- uge for my|
w: 3.~There in|ho- ly, sweet com-|mun- ion With Thy|Spir- it day by|
w: 4.~Close to|Thee, O Sav- ior,|keep me, Till I|reach the shin- ing|
 [CE]6 [CE][DF] | [EG]2 [Ge]2 [Gd]2 [Gc]2 | [Fc]2 [FA]4 [Fc][FA] | [EG]2 [Ec]2 [Fd]3 [Ge] | %8
w: me, With Thy|cords of love so|ten- der Bind and|keep me close to|
w: soul, When the|clouds hang dark- ly|round me, And the|dis- tant surg- es|
w: day, Faith to|realms of light and|glo- ry Bears my|rap- tured soul a-|
w: shore, Till I|join the rap- tured|ar- my, Shout- ing|joy for- ev- er-|
 [Ec]6 ||"^Refrain" [Ec][GB] | [FB][FA] [FA]>[FA] [FA]2 [FB][FA] | %11
w: Thee.|||
w: roll.|Keep me|ev- er close to Thee, Bless- èd|
w: way.|||
w: more.|||
 [EA][EG] [EG]>[EG] [EG]2 [DF][CE] | [B,D][B,D][B,D][CE] [DF][DF][DB][FA] | %13
w: ||
w: Sav- ior, dear to me, With Thy|cords of love so ten- der Bind and|
w: ||
w: ||
 [EG]>[FA] [EG]>[DF] [CE]2 [EG][EG] | [Ec]<[Ec] [Ec]>[Ec] [Ec]2 [Ec][Ec] | %15
w: ||
w: keep me close to Thee; Keep me|ev- er close to Thee, Bless- èd|
w: ||
w: ||
 [GB]<[FA] [CA]>[CA] !fermata![Fd]2 [Gc][FA] | [EG]2 [Ec]2 [Ge]3 [Fd] | [Ec]6 |] %18
w: |||
w: Sav- ior, dear to me, Bind and|keep me close to|Thee.|
w: |||
w: |||
V:2
 [C,G,][C,G,] | [C,G,]2 [C,G,]2 [C,G,]2 (A,B,) | [C,C]2 [C,C]4 [C,G,][C,G,] | %3
 [G,,G,]2 [G,,G,]2 [G,,G,]2 [G,,G,]2 | [C,G,]6 [C,G,][C,G,] | [C,G,]2 [C,C]2 [D,B,]2 [E,C]2 | %6
 [F,A,]2 [F,C]4 [F,A,][F,C] | [G,C]2 [G,C]2 [G,B,]3 G, | [C,G,]6 || [C,G,][E,C] | %10
 [F,C][F,C] [F,C]>[F,C] [F,C]2 [F,C][F,C] | [C,C][C,C] [C,C]>[C,C] [C,C]2 [C,G,][C,G,] | %12
 [G,,G,][G,,G,][G,,G,][G,,G,] [G,,G,][G,,G,][G,,G,][G,,B,] | %13
 [C,C]>[C,C] [C,C]>[C,G,] [C,G,]2 [C,C][C,C] | [C,G,]<[C,G,] [C,G,]>[C,G,] [A,,A,]2 A,A, | %15
 [F,C]<[F,C] [F,A,]>[F,A,] !fermata![D,A,]2 [E,C][F,C] | [G,C]2 [G,C]2 [G,C]3 [G,B,] | [C,G,]6 |] %18
V:3
 x2 | x6 C,2 | x8 | x8 | x8 | x8 | x8 | x7 G, | x6 || x2 | x8 | x8 | x8 | x8 | x6 A,A, | x8 | x8 | %17
 x6 |] %18

